X: 22515
T: Lady Ellen
R: reel
M: 4/4
K: Dmajor
BA|:BEED E2BA|BAFE EDBA|D2AD D2AD|BAFE EDBA
BEED E2BA|BAFE EDBA|AB(3BBB d3B|AFFD E2BA:|
|:Beed e2BA|Beed e2fg|fddc d2fg|fddc dBBA|
Beed e2BA|Beed e2fg|fddc d2BA|1 BAFD E2BA:|2 BAFD E4||

